svgs/light/shelves-empty.svg

<svg xmlns="http://www.w3.org/2000/svg" viewBox="0 0 640 512"><!--! Font Awesome Pro 6.6.0 by @fontawesome - https://fontawesome.com License - https://fontawesome.com/license (Commercial License) Copyright 2024 Fonticons, Inc. --><path d="M32 16C32 7.2 24.8 0 16 0S0 7.2 0 16L0 176 0 432l0 64c0 8.8 7.2 16 16 16s16-7.2 16-16l0-48 576 0 0 48c0 8.8 7.2 16 16 16s16-7.2 16-16l0-64 0-256 0-160c0-8.8-7.2-16-16-16s-16 7.2-16 16l0 144L32 160 32 16zm0 176l576 0 0 224L32 416l0-224z"/></svg>

<svg xmlns="http://www.w3.org/2000/svg" viewBox="0 0 640 512"><!--! Font Awesome Pro 6.4.2 by @fontawesome - https://fontawesome.com License - https://fontawesome.com/license (Commercial License) Copyright 2023 Fonticons, Inc. --><path d="M32 16C32 7.2 24.8 0 16 0S0 7.2 0 16V176 432v64c0 8.8 7.2 16 16 16s16-7.2 16-16V448H608v48c0 8.8 7.2 16 16 16s16-7.2 16-16V432 176 16c0-8.8-7.2-16-16-16s-16 7.2-16 16V160H32V16zm0 176H608V416H32V192z"/></svg>
